<?xml version="1.0" encoding="UTF-8"?>
<map version="1.10" tiledversion="1.11.1" orientation="orthogonal" renderorder="left-up" width="20" height="11" tilewidth="16" tileheight="16" infinite="0" nextlayerid="8" nextobjectid="20">
 <editorsettings>
  <export target="dungeon_lv1.json" format="json"/>
 </editorsettings>
 <tileset firstgid="1" name="tileset_examen" tilewidth="16" tileheight="16" tilecount="5763" columns="113">
  <image source="../tilesets/tileset_examen.png" width="1808" height="816"/>
 </tileset>
 <layer id="2" name="layer_floor" width="20" height="11">
  <data encoding="csv">
0,0,0,0,0,0,1769,0,0,0,0,0,0,0,0,0,0,0,0,0,
0,0,0,0,0,0,1769,0,0,0,0,0,0,0,0,0,0,0,0,0,
0,0,0,0,0,1769,1769,1769,0,0,0,0,0,0,0,2684355037,1769,1769,1769,0,
0,0,0,0,1769,1769,1769,1769,0,3303,3304,3305,1769,0,0,1769,1769,1769,1769,0,
0,0,0,0,1769,1656,1769,1769,1769,3872,3873,3873,3761,1769,1769,1769,1769,1769,1769,0,
0,0,0,1769,1769,1769,698,1771,1769,1769,1769,1769,362,1769,478,1769,1769,1769,1769,1769,
1769,1769,1769,1769,1769,1769,1769,1769,1769,1769,1769,1769,1769,1769,1769,1769,1769,1769,1769,1769,
0,1769,1769,1769,1769,1769,1769,1769,3299,3300,3300,3300,3300,3300,3301,1769,1769,1769,1769,1769,
0,1769,1769,1769,699,1769,1769,1769,3525,3413,3413,3413,3413,3413,3527,1769,1769,1769,1769,0,
0,1769,1769,1769,1769,1769,1769,1769,1769,0,0,0,0,0,1769,1769,1769,1769,1769,0,
0,0,0,0,1769,1769,1769,1769,0,0,0,0,0,0,0,0,0,0,0,0
</data>
 </layer>
 <layer id="3" name="layer_floor_details" width="20" height="11">
  <data encoding="csv">
0,0,0,0,0,0,0,0,0,0,0,0,0,0,0,0,0,0,0,0,
0,0,0,0,0,0,0,0,0,0,0,0,0,0,0,0,0,0,0,0,
0,0,0,0,0,0,0,0,0,0,0,0,0,0,0,816,816,816,0,0,
0,0,0,0,816,817,0,815,0,2394,2395,2396,0,0,0,0,0,0,815,0,
0,0,0,0,0,0,0,0,0,0,0,0,2398,0,0,823,824,824,825,0,
0,0,0,0,1773,0,0,0,818,1772,0,0,0,815,817,0,1661,1662,0,0,
816,3982,3983,3984,0,0,0,0,0,0,0,1770,0,2147485304,0,0,1774,1775,0,815,
0,0,0,0,0,0,1661,1662,0,0,0,0,0,0,0,0,585,0,0,0,
0,0,0,1659,0,0,1774,1775,0,0,0,0,0,0,0,1663,1664,0,0,0,
0,0,0,0,0,0,0,0,0,0,0,0,0,0,0,1776,1777,0,0,0,
0,0,0,0,0,0,0,0,0,0,0,0,0,0,0,0,0,0,0,0
</data>
 </layer>
 <layer id="1" name="layer_walls" width="20" height="11">
  <data encoding="csv">
0,0,0,0,0,1203,0,1201,0,0,0,0,0,0,0,0,0,0,0,0,
0,0,0,0,0,1203,0,1201,0,0,0,0,0,0,1211,1542,1428,1542,1321,0,
0,0,0,1211,1431,1429,0,1434,1436,1547,1545,1548,1321,0,1203,0,663,0,1434,1208,
0,0,0,1324,0,0,0,0,1200,0,0,0,1434,1321,1203,0,0,0,0,1208,
0,0,0,1324,0,0,0,0,1313,0,0,0,0,1434,1437,0,0,0,0,1208,
1431,1548,1545,1437,0,0,0,0,0,0,0,0,0,0,0,0,0,0,0,1314,
0,0,0,0,0,0,0,0,0,0,0,0,0,0,0,0,0,0,0,0,
1090,0,0,0,0,0,0,0,0,0,0,0,0,0,0,0,0,0,0,1088,
1203,0,0,0,0,0,0,0,0,0,0,0,0,0,0,0,0,0,0,1201,
1206,1090,0,0,0,0,0,0,1088,1089,1089,1089,1089,1089,1090,0,0,0,0,1201,
0,1206,1089,1089,1089,1090,0,1088,1205,0,0,0,0,0,1206,1089,1089,1089,1089,1205
</data>
 </layer>
 <layer id="7" name="layer_secret" width="20" height="11">
  <data encoding="csv">
0,0,0,0,0,0,0,0,0,0,0,0,0,0,0,0,0,0,0,0,
0,0,0,0,0,0,0,0,0,0,0,0,0,0,0,0,0,0,0,0,
0,0,0,0,0,0,0,0,0,0,0,0,0,0,0,0,0,0,0,0,
0,0,0,0,0,0,0,0,0,1832,1832,1832,0,0,0,0,0,0,0,0,
0,0,0,0,0,0,0,0,0,1832,2221,1832,1832,0,0,0,0,0,0,0,
0,0,0,0,0,0,0,0,0,0,0,0,0,0,0,0,0,0,0,0,
0,0,0,0,0,0,0,0,0,0,0,0,0,0,0,0,0,0,0,0,
0,0,0,0,0,0,0,0,0,0,0,0,0,0,0,0,0,0,0,0,
0,0,0,0,0,0,0,0,0,0,0,0,0,0,0,0,0,0,0,0,
0,0,0,0,0,0,0,0,0,0,0,0,0,0,0,0,0,0,0,0,
0,0,0,0,0,0,0,0,0,0,0,0,0,0,0,0,0,0,0,0
</data>
 </layer>
 <layer id="4" name="layer_props" width="20" height="11">
  <data encoding="csv">
0,0,0,0,0,0,0,0,0,0,0,0,0,0,0,0,0,0,0,0,
0,0,0,0,0,0,0,0,0,0,0,0,0,0,0,0,0,0,0,0,
0,0,0,0,0,4856,0,0,0,0,0,0,0,0,0,0,0,0,0,0,
0,0,0,0,2045,0,0,2047,0,0,0,0,0,0,0,0,0,0,1480,0,
0,0,0,0,0,0,0,0,4856,0,0,0,0,4856,0,0,0,0,0,0,
0,0,0,0,0,0,0,0,0,0,0,0,0,0,0,0,0,0,0,0,
0,0,0,0,0,0,0,0,0,0,0,0,0,0,0,0,0,0,0,0,
0,0,0,0,0,0,0,0,0,0,0,0,0,0,0,0,0,0,0,0,
0,2045,0,0,0,0,0,0,0,0,0,0,0,0,0,0,0,0,0,0,
0,0,0,0,0,0,0,0,0,0,0,0,0,0,0,1028,0,0,0,0,
0,0,0,0,0,0,0,0,0,0,0,0,0,0,0,0,0,0,0,0
</data>
 </layer>
 <layer id="5" name="layer_collisions" width="20" height="11" visible="0" opacity="0.5">
  <data encoding="csv">
387,387,387,387,387,387,0,387,387,387,387,387,387,387,387,387,387,387,387,387,
387,387,387,387,387,387,0,387,387,387,387,387,387,387,387,387,387,387,387,387,
387,387,387,387,387,387,0,387,387,387,387,387,387,387,387,0,0,0,387,387,
387,387,387,387,387,0,0,387,387,387,387,387,387,387,387,0,0,0,387,387,
387,387,387,387,0,0,0,0,387,387,387,387,387,387,387,0,0,0,0,387,
387,387,387,387,0,0,0,0,0,0,0,0,0,0,0,0,0,0,0,387,
0,0,0,0,0,0,0,0,0,0,0,0,0,0,0,0,0,0,0,0,
387,0,0,0,0,0,0,0,387,387,387,387,387,387,387,0,0,0,0,387,
387,387,0,0,0,0,0,0,387,387,387,387,387,387,387,0,0,0,387,387,
387,387,0,0,0,0,0,0,387,387,387,387,387,387,387,387,0,0,0,387,
387,387,387,387,387,387,0,387,387,0,0,0,0,0,387,387,387,387,387,387
</data>
 </layer>
 <objectgroup id="6" name="layer_objects">
  <object id="1" name="waterfall01" type="waterfall" x="40" y="96">
   <point/>
  </object>
  <object id="2" name="waterfall02" type="waterfall" x="168" y="48">
   <point/>
  </object>
  <object id="3" name="torch01" type="torch" x="88" y="40">
   <point/>
  </object>
  <object id="4" name="torch02" type="torch" x="136" y="72">
   <point/>
  </object>
  <object id="5" name="razor01" type="razor" x="256" y="64">
   <point/>
  </object>
  <object id="6" name="barrel01" type="barrel" x="296" y="144">
   <point/>
  </object>
  <object id="7" name="spark01" type="spark" x="290" y="155">
   <point/>
  </object>
  <object id="9" name="torch03" type="torch" x="216" y="72">
   <point/>
  </object>
  <object id="11" name="warp_right" type="warp" x="344" y="104">
   <point/>
  </object>
  <object id="12" name="warp_up" type="warp" x="104" y="-24">
   <point/>
  </object>
  <object id="13" name="warp_left" type="warp" x="-24" y="104">
   <point/>
  </object>
  <object id="14" name="warp_down" type="warp" x="104" y="200">
   <point/>
  </object>
  <object id="16" name="totem01" type="totem" x="168" y="64">
   <point/>
  </object>
  <object id="18" name="wall_torch01" type="wall_torch" x="248" y="24">
   <point/>
  </object>
  <object id="19" name="wall_torch02" type="wall_torch" x="280" y="24">
   <point/>
  </object>
 </objectgroup>
</map>
