<?xml version="1.0" encoding="UTF-8"?>
<map version="1.10" tiledversion="1.11.1" orientation="orthogonal" renderorder="left-up" width="25" height="25" tilewidth="16" tileheight="16" infinite="0" nextlayerid="25" nextobjectid="21">
 <editorsettings>
  <export target="examen_av.json" format="json"/>
 </editorsettings>
 <tileset firstgid="1" name="tileset_sunnysideworld_16px" tilewidth="16" tileheight="16" tilecount="4096" columns="64">
  <image source="../tilesets/spr_tileset_sunnysideworld_16px.png" width="1024" height="1024"/>
 </tileset>
 <layer id="1" name="water" width="25" height="25" locked="1">
  <data encoding="csv">
1356,1357,1358,1359,1356,1357,1358,1359,1356,1357,1358,1359,1356,1357,1358,1359,1356,1357,1358,1359,1356,1357,1358,1359,1356,
1164,1165,1166,1167,1164,1165,1166,1167,1164,1165,1166,1167,1164,1165,1166,1167,1164,1165,1166,1167,1164,1165,1166,1167,1164,
1228,1229,1230,1231,1228,1229,1230,1231,1228,1229,1230,1231,1228,1229,1230,1231,1228,1229,1230,1231,1228,1229,1230,1231,1228,
1292,1293,1294,1295,1292,1293,1294,1295,1292,1293,1294,1295,1292,1293,1294,1295,1292,1293,1294,1295,1292,1293,1294,1295,1292,
1356,1357,1358,1359,1356,1357,1358,1359,1356,1357,1358,1359,1356,1357,1358,1359,1356,1357,1358,1359,1356,1357,1358,1359,1356,
1164,1165,1166,1167,1164,1165,1166,1167,1164,1165,1166,1167,1164,1165,1166,1167,1164,1165,1166,1167,1164,1165,1166,1167,1164,
1228,1229,1230,1231,1228,1229,1230,1231,1228,1229,1230,1231,1228,1229,1230,1231,1228,1229,1230,1231,1228,1229,1230,1231,1228,
1292,1293,1294,1295,1292,1293,1294,1295,1292,1293,1294,1295,1292,1293,1294,1295,1292,1293,1294,1295,1292,1293,1294,1295,1292,
1356,1357,1358,1359,1356,1357,1358,1359,1356,1357,1358,1359,1356,1357,1358,1359,1356,1357,1358,1359,1356,1357,1358,1359,1356,
1164,1165,1166,1167,1164,1165,1166,1167,1164,1165,1166,1167,1164,1165,1166,1167,1164,1165,1166,1167,1164,1165,1166,1167,1164,
1228,1229,1230,1231,1228,1229,1230,1231,1228,1229,1230,1231,1228,1229,1230,1231,1228,1229,1230,1231,1228,1229,1230,1231,1228,
1292,1293,1294,1295,1292,1293,1294,1295,1292,1293,1294,1295,1292,1293,1294,1295,1292,1293,1294,1295,1292,1293,1294,1295,1292,
1356,1357,1358,1359,1356,1357,1358,1359,1356,1357,1358,1359,1356,1357,1358,1359,1356,1357,1358,1359,1356,1357,1358,1359,1356,
1164,1165,1166,1167,1164,1165,1166,1167,1164,1165,1166,1167,1164,1165,1166,1167,1164,1165,1166,1167,1164,1165,1166,1167,1164,
1228,1229,1230,1231,1228,1229,1230,1231,1228,1229,1230,1231,1228,1229,1230,1231,1228,1229,1230,1231,1228,1229,1230,1231,1228,
1292,1293,1294,1295,1292,1293,1294,1295,1292,1293,1294,1295,1292,1293,1294,1295,1292,1293,1294,1295,1292,1293,1294,1295,1292,
1356,1357,1358,1359,1356,1357,1358,1359,1356,1357,1358,1359,1356,1357,1358,1359,1356,1357,1358,1359,1356,1357,1358,1359,1356,
1164,1165,1166,1167,1164,1165,1166,1167,1164,1165,1166,1167,1164,1165,1166,1167,1164,1165,1166,1167,1164,1165,1166,1167,1164,
1228,1229,1230,1231,1228,1229,1230,1231,1228,1229,1230,1231,1228,1229,1230,1231,1228,1229,1230,1231,1228,1229,1230,1231,1228,
1292,1293,1294,1295,1292,1293,1294,1295,1292,1293,1294,1295,1292,1293,1294,1295,1292,1293,1294,1295,1292,1293,1294,1295,1292,
1356,1357,1358,1359,1356,1357,1358,1359,1356,1357,1358,1359,1356,1357,1358,1359,1356,1357,1358,1359,1356,1357,1358,1359,1356,
1164,1165,1166,1167,1164,1165,1166,1167,1164,1165,1166,1167,1164,1165,1166,1167,1164,1165,1166,1167,1164,1165,1166,1167,1164,
1228,1229,1230,1231,1228,1229,1230,1231,1228,1229,1230,1231,1228,1229,1230,1231,1228,1229,1230,1231,1228,1229,1230,1231,1228,
1292,1293,1294,1295,1292,1293,1294,1295,1292,1293,1294,1295,1292,1293,1294,1295,1292,1293,1294,1295,1292,1293,1294,1295,1292,
1356,1357,1358,1359,1356,1357,1358,1359,1356,1357,1358,1359,1356,1357,1358,1359,1356,1357,1358,1359,1356,1357,1358,1359,1356
</data>
 </layer>
 <layer id="3" name="cliff" width="25" height="25" locked="1">
  <data encoding="csv">
0,0,0,0,0,0,0,0,0,0,0,0,0,0,0,0,0,0,0,0,0,0,0,0,0,
0,0,0,0,0,0,0,0,0,0,0,0,0,0,0,0,0,0,0,0,0,0,0,0,0,
0,0,0,0,0,0,0,0,0,0,0,0,0,0,0,0,0,0,0,0,0,0,0,0,0,
0,0,0,0,0,0,0,0,0,0,0,0,0,0,0,0,0,0,0,0,0,0,0,0,0,
0,0,0,0,0,0,0,0,0,0,0,0,0,0,0,0,0,0,0,0,0,0,0,0,0,
0,0,0,0,0,0,0,0,0,0,0,0,0,0,0,0,0,0,0,0,0,0,0,0,0,
0,0,0,0,0,0,0,0,0,0,0,0,0,0,0,0,0,0,0,0,0,0,0,0,0,
0,0,0,0,0,0,0,0,0,0,0,0,0,0,0,0,0,0,0,0,0,0,0,0,0,
0,0,0,0,0,0,0,0,0,0,0,0,0,0,0,0,0,0,0,0,0,0,0,0,0,
0,0,0,0,0,0,0,0,0,0,0,0,0,0,0,0,0,0,0,0,0,0,0,0,0,
0,0,0,0,0,0,0,0,0,0,0,0,0,0,0,0,0,0,0,0,0,0,0,0,0,
0,0,0,0,0,0,0,0,0,0,0,0,0,0,0,0,0,0,0,0,0,0,0,0,0,
0,0,0,0,0,0,0,0,0,0,0,0,0,0,0,0,0,0,0,0,0,0,0,0,0,
0,0,0,0,0,0,0,0,0,0,0,0,0,0,0,0,0,0,0,0,0,0,0,0,0,
0,0,0,0,0,0,0,0,0,0,0,0,0,0,0,0,0,0,0,0,0,0,0,0,0,
0,0,0,0,0,0,0,0,0,0,0,0,0,0,0,0,0,0,0,0,0,0,0,0,0,
0,0,0,0,0,0,0,0,0,0,0,0,0,0,0,0,0,0,0,0,0,0,0,0,0,
0,0,0,0,0,0,0,0,0,0,0,0,0,0,0,0,0,0,0,0,0,0,0,0,0,
0,0,0,0,0,0,0,0,0,0,0,0,0,0,0,0,0,0,0,0,0,0,0,0,0,
0,0,0,0,0,0,0,0,0,0,0,1987,1987,1987,0,0,0,0,0,0,0,0,0,0,0,
0,0,0,0,0,0,0,0,0,0,1988,2051,2051,2051,1986,0,0,0,0,0,0,0,0,0,0,
0,0,1986,1987,1987,1987,1987,1987,1987,1988,148,149,149,149,150,1986,1987,1987,1987,1987,1987,1987,1988,0,0,
0,0,150,2051,2051,2051,2051,2051,2051,148,407,0,0,0,406,150,2051,2051,2051,2051,2051,2051,148,0,0,
0,0,406,149,149,149,149,149,149,407,0,0,0,0,0,406,149,149,149,149,149,149,407,0,0,
0,0,0,0,0,0,0,0,0,0,0,0,0,0,0,0,0,0,0,0,0,0,0,0,0
</data>
 </layer>
 <layer id="2" name="land" width="25" height="25">
  <data encoding="csv">
0,0,0,0,0,0,0,0,0,0,0,0,0,0,0,0,0,0,0,0,0,0,0,0,0,
0,0,0,0,0,0,0,0,0,0,0,0,0,0,0,0,0,0,0,0,0,0,0,0,0,
0,0,1794,1795,1795,1795,1795,1795,1795,1795,1795,1795,1795,1795,1795,1795,1795,1795,1795,1795,1795,1795,1796,0,0,
0,0,1858,66,196,194,132,196,259,193,132,66,193,195,66,258,67,67,132,193,67,259,1860,0,0,
0,0,1858,67,67,130,67,193,132,193,195,67,194,259,66,258,193,195,258,131,67,130,1860,0,0,
0,0,1858,67,194,259,131,132,67,66,131,196,193,195,259,67,195,195,132,66,132,66,1860,0,0,
0,0,1858,194,259,131,67,259,66,194,259,130,67,196,131,196,194,67,194,196,259,259,1860,0,0,
0,0,1858,196,196,196,258,67,258,130,259,131,194,132,130,131,131,193,67,195,66,67,1860,0,0,
0,0,1858,196,259,66,258,131,67,132,195,195,193,258,132,258,259,67,258,194,132,258,1860,0,0,
0,0,1858,131,131,195,195,258,66,194,66,194,196,259,194,132,67,195,259,195,132,131,1860,0,0,
0,0,1858,131,259,259,259,132,196,131,66,195,67,258,195,259,66,258,195,196,67,67,1860,0,0,
0,0,1858,67,131,196,195,66,195,196,66,66,194,196,67,131,194,131,131,196,132,194,1860,0,0,
0,0,1858,66,259,66,67,194,132,259,130,259,67,194,195,130,195,193,131,130,131,130,1860,0,0,
0,0,1858,195,195,196,66,258,67,259,195,66,259,196,130,132,195,193,67,259,193,258,1860,0,0,
0,0,1858,259,258,66,132,130,195,66,130,193,195,195,66,132,196,66,67,259,193,194,1860,0,0,
0,0,1858,194,67,258,132,258,196,132,194,193,258,194,259,66,130,258,258,132,196,130,1860,0,0,
0,0,1858,194,195,66,194,194,130,258,193,193,194,194,131,195,196,130,259,259,66,259,1860,0,0,
0,0,1858,66,259,130,132,66,196,196,195,258,132,67,132,195,196,66,194,193,130,131,1860,0,0,
0,0,1858,132,196,258,66,130,259,194,194,1923,1923,1923,1859,193,195,259,66,259,130,258,1860,0,0,
0,0,1858,131,194,131,67,258,131,66,1924,0,0,0,1922,132,196,67,66,66,195,132,1860,0,0,
0,0,1922,1923,1923,1923,1923,1923,1923,1924,0,0,0,0,0,1922,1923,1923,1923,1923,1923,1923,1924,0,0,
0,0,0,0,0,0,0,0,0,0,0,0,0,0,0,0,0,0,0,0,0,0,0,0,0,
0,0,0,0,0,0,0,0,0,0,0,0,0,0,0,0,0,0,0,0,0,0,0,0,0,
0,0,0,0,0,0,0,0,0,0,0,0,0,0,0,0,0,0,0,0,0,0,0,0,0,
0,0,0,0,0,0,0,0,0,0,0,0,0,0,0,0,0,0,0,0,0,0,0,0,0
</data>
 </layer>
 <layer id="4" name="cave_in" width="25" height="25">
  <data encoding="csv">
0,0,0,0,0,0,0,0,0,0,0,0,0,0,0,0,0,0,0,0,0,0,0,0,0,
0,0,0,0,0,0,0,0,0,0,0,0,0,0,0,0,0,0,0,0,0,0,0,0,0,
0,0,0,0,0,0,0,0,0,0,0,0,0,0,0,0,0,0,0,0,0,0,0,0,0,
0,0,0,0,0,0,0,0,0,0,0,0,0,0,0,2125,2684356686,2684356684,2684356684,2684356684,2684356686,2684356685,0,0,0,
0,0,0,0,0,0,0,0,0,0,0,0,0,0,0,2126,1803,1804,1804,1804,1805,2147485774,0,0,0,
0,0,0,0,0,0,0,0,0,0,0,0,0,0,0,2124,1867,1932,1932,1868,1869,3221227596,0,0,0,
0,0,0,0,0,0,0,0,0,0,0,0,0,0,0,2126,1995,1932,1996,1932,1997,3221227598,0,0,0,
0,0,0,0,0,0,0,0,0,0,0,0,0,0,0,1073743949,1610614862,1610614860,2058,1610614860,1610614862,3221227597,0,0,0,
0,0,0,0,0,0,0,0,0,0,0,0,0,0,0,0,0,0,0,0,0,0,0,0,0,
0,0,0,0,0,0,0,0,0,0,0,0,0,0,0,0,0,0,0,0,0,0,0,0,0,
0,0,0,0,0,0,0,0,0,0,0,0,0,0,0,0,0,0,0,0,0,0,0,0,0,
0,0,0,0,0,0,0,0,0,0,0,0,0,0,0,0,0,0,0,0,0,0,0,0,0,
0,0,0,0,0,0,0,0,0,0,0,0,0,0,0,0,0,0,0,0,0,0,0,0,0,
0,0,0,0,0,0,0,0,0,0,0,0,0,0,0,0,0,0,0,0,0,0,0,0,0,
0,0,0,0,0,0,0,0,0,0,0,0,0,0,0,2187,2187,0,0,0,0,0,0,0,0,
0,0,0,0,0,0,0,0,0,0,0,0,0,0,2187,2187,0,0,0,0,0,0,0,0,0,
0,0,0,0,0,0,0,0,0,0,0,0,0,0,0,0,0,0,0,0,0,0,0,0,0,
0,0,0,0,0,0,0,0,0,0,0,0,0,0,0,0,0,0,0,0,0,0,0,0,0,
0,0,0,0,0,0,0,0,0,0,0,0,0,0,0,0,0,0,0,0,0,0,0,0,0,
0,0,0,0,0,0,0,0,0,0,0,0,0,0,0,0,0,0,0,0,0,0,0,0,0,
0,0,0,0,0,0,0,0,0,0,0,0,0,0,0,0,0,0,0,0,0,0,0,0,0,
0,0,0,0,0,0,0,0,0,0,0,0,0,0,0,0,0,0,0,0,0,0,0,0,0,
0,0,0,0,0,0,0,0,0,0,0,0,0,0,0,0,0,0,0,0,0,0,0,0,0,
0,0,0,0,0,0,0,0,0,0,0,0,0,0,0,0,0,0,0,0,0,0,0,0,0,
0,0,0,0,0,0,0,0,0,0,0,0,0,0,0,0,0,0,0,0,0,0,0,0,0
</data>
 </layer>
 <objectgroup id="23" name="objects">
  <object id="1" name="tree1" type="tree" x="55.6667" y="118.333">
   <point/>
  </object>
  <object id="3" name="tree2" type="tree" x="56.3333" y="85.6667">
   <point/>
  </object>
  <object id="4" name="tree3" type="tree" x="56" y="54.6667">
   <point/>
  </object>
  <object id="5" name="tree4" type="tree" x="87.6667" y="86.3333">
   <point/>
  </object>
  <object id="6" name="tree5" type="tree" x="88" y="54.6667">
   <point/>
  </object>
  <object id="7" name="tree6" type="tree" x="120.667" y="54.3333">
   <point/>
  </object>
  <object id="8" name="npc1" type="npc" x="55.3333" y="153.667">
   <properties>
    <property name="dialog">Si quieres madera, 
 necesitas un hacha!</property>
   </properties>
   <point/>
  </object>
  <object id="9" name="npc2" type="npc" x="119" y="249.333">
   <properties>
    <property name="dialog">Si quieres forraje, 
 necesitas regar</property>
   </properties>
   <point/>
  </object>
  <object id="10" name="npc3" type="npc" x="183.667" y="220.667">
   <properties>
    <property name="dialog">Con 6x madera 
 puedes construir una tienda</property>
   </properties>
   <point/>
  </object>
  <object id="11" name="npc4" type="npc" x="280" y="315.333">
   <properties>
    <property name="dialog">Si me traes 10x oro, 
 podemos honrar al gran Richard!</property>
   </properties>
   <point/>
  </object>
  <object id="12" name="npc5" type="npc" x="262.218" y="184.68">
   <properties>
    <property name="dialog">Si quieres recursos, 
 necesitas forraje</property>
   </properties>
   <point/>
  </object>
  <object id="13" name="npc6" type="npc" x="278.195" y="136.748">
   <properties>
    <property name="dialog">Si honras a Radev, 
 te dara algo util</property>
   </properties>
   <point/>
  </object>
  <object id="14" name="tumba" type="tumba" x="295.583" y="71.8985">
   <point/>
  </object>
  <object id="15" name="tienda" type="tienda" x="192" y="182">
   <point/>
  </object>
  <object id="16" name="pozo" type="pozo" x="48" y="240">
   <point/>
  </object>
  <object id="17" name="huerto" type="huerto" x="88" y="287.594">
   <point/>
  </object>
  <object id="18" name="monumento" type="monumento" x="319.549" y="303.571">
   <point/>
  </object>
  <object id="19" name="granja" type="granja" x="319.079" y="215.695">
   <point/>
  </object>
 </objectgroup>
 <layer id="5" name="cave_out" width="25" height="25">
  <data encoding="csv">
0,0,0,0,0,0,0,0,0,0,0,0,0,0,0,0,0,0,0,0,0,0,0,0,0,
0,0,0,0,0,0,0,0,0,0,0,0,0,0,0,0,0,0,0,0,0,0,0,0,0,
0,0,0,0,0,0,0,0,0,0,0,0,0,0,0,0,0,0,0,0,0,0,0,0,0,
0,0,0,0,0,0,0,0,0,0,0,0,0,0,0,1794,1795,1795,1795,1795,1795,1796,0,0,0,
0,0,0,0,0,0,0,0,0,0,0,0,0,0,0,1858,1859,1859,1859,1859,1859,1860,0,0,0,
0,0,0,0,0,0,0,0,0,0,0,0,0,0,0,1922,1923,1923,1923,1923,1923,1924,0,0,0,
0,0,0,0,0,0,0,0,0,0,0,0,0,0,0,1986,1987,1987,1987,1987,1987,1988,0,0,0,
0,0,0,0,0,0,0,0,0,0,0,0,0,0,0,2050,2051,2051,2051,2051,2051,2052,0,0,0,
0,0,0,0,0,0,0,0,0,0,0,0,0,0,0,0,0,0,0,0,0,0,0,0,0,
0,0,0,0,0,0,0,0,0,0,0,0,0,0,0,0,0,0,0,0,0,0,0,0,0,
0,0,0,0,0,0,0,0,0,0,0,0,0,0,0,0,0,0,0,0,0,0,0,0,0,
0,0,0,0,0,0,0,0,0,0,0,0,0,0,0,0,0,0,0,0,0,0,0,0,0,
0,0,0,0,0,0,0,0,0,0,0,0,0,0,0,0,0,0,0,0,0,0,0,0,0,
0,0,0,0,0,0,0,0,0,0,0,0,0,0,0,0,0,0,0,0,0,0,0,0,0,
0,0,0,0,0,0,0,0,0,0,0,0,0,0,0,0,0,0,0,0,0,0,0,0,0,
0,0,0,0,0,0,0,0,0,0,0,0,0,0,0,0,0,0,0,0,0,0,0,0,0,
0,0,0,0,0,0,0,0,0,0,0,0,0,0,0,0,0,0,0,0,0,0,0,0,0,
0,0,0,0,0,0,0,0,0,0,0,0,0,0,0,0,0,0,0,0,0,0,0,0,0,
0,0,0,0,0,0,0,0,0,0,0,0,0,0,0,0,0,0,0,0,0,0,0,0,0,
0,0,0,0,0,0,0,0,0,0,0,0,0,0,0,0,0,0,0,0,0,0,0,0,0,
0,0,0,0,0,0,0,0,0,0,0,0,0,0,0,0,0,0,0,0,0,0,0,0,0,
0,0,0,0,0,0,0,0,0,0,0,0,0,0,0,0,0,0,0,0,0,0,0,0,0,
0,0,0,0,0,0,0,0,0,0,0,0,0,0,0,0,0,0,0,0,0,0,0,0,0,
0,0,0,0,0,0,0,0,0,0,0,0,0,0,0,0,0,0,0,0,0,0,0,0,0,
0,0,0,0,0,0,0,0,0,0,0,0,0,0,0,0,0,0,0,0,0,0,0,0,0
</data>
 </layer>
 <layer id="7" name="radevs_stone" width="25" height="25">
  <data encoding="csv">
0,0,0,0,0,0,0,0,0,0,0,0,0,0,0,0,0,0,0,0,0,0,0,0,0,
0,0,0,0,0,0,0,0,0,0,0,0,0,0,0,0,0,0,0,0,0,0,0,0,0,
0,0,0,0,0,0,0,0,0,0,0,0,0,0,0,0,0,0,0,0,0,0,0,0,0,
0,0,0,0,0,0,0,0,0,0,0,0,0,0,0,370,371,95,1070,2147483743,242,243,0,0,0,
0,0,0,0,0,0,0,0,0,0,0,0,0,0,0,434,435,2147483953,1132,241,306,307,0,0,0,
0,0,0,0,0,0,0,0,0,0,0,0,0,0,0,0,562,360,361,362,562,0,0,0,0,
0,0,0,0,0,0,0,0,0,0,0,0,0,0,0,0,0,0,425,0,0,0,0,0,0,
0,0,0,0,0,0,0,0,0,0,0,0,0,0,0,0,0,0,425,0,0,0,0,0,0,
0,0,0,0,0,0,0,0,0,0,0,0,0,0,0,0,0,0,0,0,0,0,0,0,0,
0,0,0,0,0,0,0,0,0,0,0,0,0,0,0,0,0,0,0,0,0,0,0,0,0,
0,0,0,0,0,0,0,0,0,0,0,0,0,0,0,0,0,0,0,0,0,0,0,0,0,
0,0,0,0,0,0,0,0,0,0,0,0,0,0,0,0,0,0,0,0,0,0,0,0,0,
0,0,0,0,0,0,0,0,0,0,0,0,0,0,0,0,0,0,0,0,0,0,0,0,0,
0,0,0,0,0,0,0,0,0,0,0,0,0,0,0,0,0,0,0,0,0,0,0,0,0,
0,0,0,0,0,0,0,0,0,0,0,0,0,0,0,0,0,0,0,0,0,0,0,0,0,
0,0,0,0,0,0,0,0,0,0,0,0,0,0,0,0,0,0,0,0,0,0,0,0,0,
0,0,0,0,0,0,0,0,0,0,0,0,0,0,0,0,0,0,0,0,0,0,0,0,0,
0,0,0,0,0,0,0,0,0,0,0,0,0,0,0,0,0,0,0,0,0,0,0,0,0,
0,0,0,0,0,0,0,0,0,0,0,0,0,0,0,0,0,0,0,0,0,0,0,0,0,
0,0,0,0,0,0,0,0,0,0,0,0,0,0,0,0,0,0,0,0,0,0,0,0,0,
0,0,0,0,0,0,0,0,0,0,0,0,0,0,0,0,0,0,0,0,0,0,0,0,0,
0,0,0,0,0,0,0,0,0,0,0,0,0,0,0,0,0,0,0,0,0,0,0,0,0,
0,0,0,0,0,0,0,0,0,0,0,0,0,0,0,0,0,0,0,0,0,0,0,0,0,
0,0,0,0,0,0,0,0,0,0,0,0,0,0,0,0,0,0,0,0,0,0,0,0,0,
0,0,0,0,0,0,0,0,0,0,0,0,0,0,0,0,0,0,0,0,0,0,0,0,0
</data>
 </layer>
 <layer id="22" name="radevs_stone_profanated" width="25" height="25">
  <data encoding="csv">
0,0,0,0,0,0,0,0,0,0,0,0,0,0,0,0,0,0,0,0,0,0,0,0,0,
0,0,0,0,0,0,0,0,0,0,0,0,0,0,0,0,0,0,0,0,0,0,0,0,0,
0,0,0,0,0,0,0,0,0,0,0,0,0,0,0,0,0,0,0,0,0,0,0,0,0,
0,0,0,0,0,0,0,0,0,0,0,0,0,0,0,370,371,95,1070,2147483743,242,243,0,0,0,
0,0,0,0,0,0,0,0,0,0,0,0,0,0,0,434,435,2147483953,1133,241,306,307,0,0,0,
0,0,0,0,0,0,0,0,0,0,0,0,0,0,0,0,562,0,0,0,562,0,0,0,0,
0,0,0,0,0,0,0,0,0,0,0,0,0,0,0,0,0,0,0,0,0,0,0,0,0,
0,0,0,0,0,0,0,0,0,0,0,0,0,0,0,0,0,139,140,141,0,0,0,0,0,
0,0,0,0,0,0,0,0,0,0,0,0,0,0,0,0,0,0,0,0,0,0,0,0,0,
0,0,0,0,0,0,0,0,0,0,0,0,0,0,0,0,0,0,0,0,0,0,0,0,0,
0,0,0,0,0,0,0,0,0,0,0,0,0,0,0,0,0,0,0,0,0,0,0,0,0,
0,0,0,0,0,0,0,0,0,0,0,0,0,0,0,0,0,0,0,0,0,0,0,0,0,
0,0,0,0,0,0,0,0,0,0,0,0,0,0,0,0,0,0,0,0,0,0,0,0,0,
0,0,0,0,0,0,0,0,0,0,0,0,0,0,0,0,0,0,0,0,0,0,0,0,0,
0,0,0,0,0,0,0,0,0,0,0,0,0,0,0,0,0,0,0,0,0,0,0,0,0,
0,0,0,0,0,0,0,0,0,0,0,0,0,0,0,0,0,0,0,0,0,0,0,0,0,
0,0,0,0,0,0,0,0,0,0,0,0,0,0,0,0,0,0,0,0,0,0,0,0,0,
0,0,0,0,0,0,0,0,0,0,0,0,0,0,0,0,0,0,0,0,0,0,0,0,0,
0,0,0,0,0,0,0,0,0,0,0,0,0,0,0,0,0,0,0,0,0,0,0,0,0,
0,0,0,0,0,0,0,0,0,0,0,0,0,0,0,0,0,0,0,0,0,0,0,0,0,
0,0,0,0,0,0,0,0,0,0,0,0,0,0,0,0,0,0,0,0,0,0,0,0,0,
0,0,0,0,0,0,0,0,0,0,0,0,0,0,0,0,0,0,0,0,0,0,0,0,0,
0,0,0,0,0,0,0,0,0,0,0,0,0,0,0,0,0,0,0,0,0,0,0,0,0,
0,0,0,0,0,0,0,0,0,0,0,0,0,0,0,0,0,0,0,0,0,0,0,0,0,
0,0,0,0,0,0,0,0,0,0,0,0,0,0,0,0,0,0,0,0,0,0,0,0,0
</data>
 </layer>
 <layer id="6" name="land_details" width="25" height="25" locked="1">
  <data encoding="csv">
0,0,0,0,0,0,0,0,0,0,0,0,0,0,0,0,0,0,0,0,0,0,0,0,0,
0,0,0,0,0,0,0,0,0,0,0,0,0,0,0,0,0,0,0,0,0,0,0,0,0,
0,0,0,0,0,0,0,0,0,0,0,0,0,0,0,0,0,0,0,0,0,0,0,0,0,
0,0,0,0,0,0,0,0,0,0,0,0,0,0,0,0,0,0,0,0,0,0,0,0,0,
0,0,0,0,0,0,0,0,0,0,0,0,0,0,0,0,0,0,0,0,0,0,0,0,0,
0,0,0,0,0,0,0,0,0,0,0,0,0,0,0,0,0,0,0,0,0,0,0,0,0,
0,0,0,0,0,0,0,0,0,0,0,0,0,0,0,0,0,0,0,0,0,0,0,0,0,
0,0,0,0,0,0,0,0,0,0,0,0,0,0,0,0,0,0,0,0,0,0,0,0,0,
0,0,0,0,0,0,0,0,0,0,0,0,0,0,0,0,0,0,0,0,0,0,0,0,0,
0,0,0,0,0,0,0,0,0,1610613264,1610613263,1610613263,1610613263,1610613263,528,0,0,0,0,0,0,946,0,0,0,
0,0,0,0,0,0,0,0,0,2147484175,460,458,460,460,1073742351,0,0,0,0,0,0,0,0,0,0,
0,0,0,0,0,0,0,0,0,2147484175,522,460,460,459,1073742351,0,0,0,1610613263,1610613263,1610613263,1610613263,0,0,0,
0,0,0,0,0,0,0,0,0,2147484175,459,458,459,522,1073742351,0,0,3221225999,522,523,458,460,527,0,0,
0,0,0,0,0,0,0,0,0,3221226000,536871439,536871439,536871439,536871439,2684355088,0,0,3221225999,523,522,458,523,527,0,0,
0,0,1382,1383,0,0,0,0,0,0,0,0,0,0,0,0,0,3221225999,458,459,459,523,527,0,0,
0,0,1446,1447,2684355026,2684355026,2684355026,2684355026,0,0,0,0,0,0,0,0,0,0,2684355087,2684355087,2684355087,2684355087,2121,0,0,
0,0,466,522,459,460,459,459,3221225938,0,0,0,0,0,0,0,0,2117,2118,0,0,0,0,0,0,
0,0,466,523,458,459,458,458,3221225938,0,0,0,0,0,0,0,0,2117,2118,2119,2119,2120,2121,0,0,
0,0,466,522,458,458,459,459,3221225938,0,0,0,0,0,0,0,0,2181,2182,2183,2183,2184,2185,0,0,
0,0,466,458,522,458,460,458,3221225938,0,0,0,0,0,0,0,0,2309,2310,2311,2311,2312,2313,0,0,
0,0,0,1610613202,1610613202,1610613202,1610613202,1610613202,0,0,0,0,0,0,0,0,0,2373,2374,2375,2375,2376,2377,0,0,
0,0,0,0,0,0,0,0,0,0,0,0,0,0,0,0,0,0,0,0,0,0,0,0,0,
0,0,0,0,0,0,0,0,0,0,0,0,0,0,0,0,0,0,0,0,0,0,0,0,0,
0,0,0,0,0,0,0,0,0,0,0,0,0,0,0,0,0,0,0,0,0,0,0,0,0,
0,0,0,0,0,0,0,0,0,0,0,0,0,0,0,0,0,0,0,0,0,0,0,0,0
</data>
 </layer>
 <layer id="10" name="house_lv0" width="25" height="25">
  <data encoding="csv">
0,0,0,0,0,0,0,0,0,0,0,0,0,0,0,0,0,0,0,0,0,0,0,0,0,
0,0,0,0,0,0,0,0,0,0,0,0,0,0,0,0,0,0,0,0,0,0,0,0,0,
0,0,0,0,0,0,0,0,0,0,0,0,0,0,0,0,0,0,0,0,0,0,0,0,0,
0,0,0,0,0,0,0,0,0,0,0,0,0,0,0,0,0,0,0,0,0,0,0,0,0,
0,0,0,0,0,0,0,0,0,0,0,0,0,0,0,0,0,0,0,0,0,0,0,0,0,
0,0,0,0,0,0,0,0,0,0,0,0,0,0,0,0,0,0,0,0,0,0,0,0,0,
0,0,0,0,0,0,0,0,0,0,0,0,0,0,0,0,0,0,0,0,0,0,0,0,0,
0,0,0,0,0,0,0,0,0,0,0,0,0,0,0,0,0,0,0,0,0,0,0,0,0,
0,0,0,0,0,0,0,0,0,0,0,0,0,0,0,0,0,0,0,0,0,0,0,0,0,
0,0,0,0,0,0,0,0,0,0,0,0,0,0,0,0,0,0,0,0,0,0,0,0,0,
0,0,0,0,0,0,0,0,0,0,107,168,168,106,0,0,0,0,0,0,0,0,0,0,0,
0,0,0,0,0,0,0,0,0,0,233,0,0,233,0,0,0,0,0,0,0,0,0,0,0,
0,0,0,0,0,0,0,0,0,0,104,168,168,103,0,0,0,0,0,0,0,0,0,0,0,
0,0,0,0,0,0,0,0,0,0,0,0,0,0,0,0,0,0,0,0,0,0,0,0,0,
0,0,0,0,0,0,0,0,0,0,0,0,0,0,0,0,0,0,0,0,0,0,0,0,0,
0,0,0,0,0,0,0,0,0,0,0,0,0,0,0,0,0,0,0,0,0,0,0,0,0,
0,0,0,0,0,0,0,0,0,0,0,0,0,0,0,0,0,0,0,0,0,0,0,0,0,
0,0,0,0,0,0,0,0,0,0,0,0,0,0,0,0,0,0,0,0,0,0,0,0,0,
0,0,0,0,0,0,0,0,0,0,0,0,0,0,0,0,0,0,0,0,0,0,0,0,0,
0,0,0,0,0,0,0,0,0,0,0,0,0,0,0,0,0,0,0,0,0,0,0,0,0,
0,0,0,0,0,0,0,0,0,0,0,0,0,0,0,0,0,0,0,0,0,0,0,0,0,
0,0,0,0,0,0,0,0,0,0,0,0,0,0,0,0,0,0,0,0,0,0,0,0,0,
0,0,0,0,0,0,0,0,0,0,0,0,0,0,0,0,0,0,0,0,0,0,0,0,0,
0,0,0,0,0,0,0,0,0,0,0,0,0,0,0,0,0,0,0,0,0,0,0,0,0,
0,0,0,0,0,0,0,0,0,0,0,0,0,0,0,0,0,0,0,0,0,0,0,0,0
</data>
 </layer>
 <layer id="11" name="house_lv1_low_details" width="25" height="25" visible="0">
  <data encoding="csv">
0,0,0,0,0,0,0,0,0,0,0,0,0,0,0,0,0,0,0,0,0,0,0,0,0,
0,0,0,0,0,0,0,0,0,0,0,0,0,0,0,0,0,0,0,0,0,0,0,0,0,
0,0,0,0,0,0,0,0,0,0,0,0,0,0,0,0,0,0,0,0,0,0,0,0,0,
0,0,0,0,0,0,0,0,0,0,0,0,0,0,0,0,0,0,0,0,0,0,0,0,0,
0,0,0,0,0,0,0,0,0,0,0,0,0,0,0,0,0,0,0,0,0,0,0,0,0,
0,0,0,0,0,0,0,0,0,0,0,0,0,0,0,0,0,0,0,0,0,0,0,0,0,
0,0,0,0,0,0,0,0,0,0,0,0,0,0,0,0,0,0,0,0,0,0,0,0,0,
0,0,0,0,0,0,0,0,0,0,0,0,0,0,0,0,0,0,0,0,0,0,0,0,0,
0,0,0,0,0,0,0,0,0,0,245,0,0,0,0,0,0,0,0,0,0,0,0,0,0,
0,0,0,0,0,0,0,0,0,0,309,0,0,0,0,0,0,0,0,0,0,0,0,0,0,
0,0,0,0,0,0,0,0,0,0,373,0,0,499,0,0,0,0,0,0,0,0,0,0,0,
0,0,0,0,0,0,0,0,0,0,2280,0,0,562,0,0,0,0,0,0,0,0,0,0,0,
0,0,0,0,0,0,0,0,0,0,2344,0,0,1063,0,0,0,0,0,0,0,0,0,0,0,
0,0,0,0,0,0,0,0,0,0,0,0,0,0,0,0,0,0,0,0,0,0,0,0,0,
0,0,0,0,0,0,0,0,0,0,0,0,0,0,0,0,0,0,0,0,0,0,0,0,0,
0,0,0,0,0,0,0,0,0,0,0,0,0,0,0,0,0,0,0,0,0,0,0,0,0,
0,0,0,0,0,0,0,0,0,0,0,0,0,0,0,0,0,0,0,0,0,0,0,0,0,
0,0,0,0,0,0,0,0,0,0,0,0,0,0,0,0,0,0,0,0,0,0,0,0,0,
0,0,0,0,0,0,0,0,0,0,0,0,0,0,0,0,0,0,0,0,0,0,0,0,0,
0,0,0,0,0,0,0,0,0,0,0,0,0,0,0,0,0,0,0,0,0,0,0,0,0,
0,0,0,0,0,0,0,0,0,0,0,0,0,0,0,0,0,0,0,0,0,0,0,0,0,
0,0,0,0,0,0,0,0,0,0,0,0,0,0,0,0,0,0,0,0,0,0,0,0,0,
0,0,0,0,0,0,0,0,0,0,0,0,0,0,0,0,0,0,0,0,0,0,0,0,0,
0,0,0,0,0,0,0,0,0,0,0,0,0,0,0,0,0,0,0,0,0,0,0,0,0,
0,0,0,0,0,0,0,0,0,0,0,0,0,0,0,0,0,0,0,0,0,0,0,0,0
</data>
 </layer>
 <layer id="9" name="house_lv1" width="25" height="25">
  <data encoding="csv">
0,0,0,0,0,0,0,0,0,0,0,0,0,0,0,0,0,0,0,0,0,0,0,0,0,
0,0,0,0,0,0,0,0,0,0,0,0,0,0,0,0,0,0,0,0,0,0,0,0,0,
0,0,0,0,0,0,0,0,0,0,0,0,0,0,0,0,0,0,0,0,0,0,0,0,0,
0,0,0,0,0,0,0,0,0,0,0,0,0,0,0,0,0,0,0,0,0,0,0,0,0,
0,0,0,0,0,0,0,0,0,0,0,0,0,0,0,0,0,0,0,0,0,0,0,0,0,
0,0,0,0,0,0,0,0,0,0,0,0,0,0,0,0,0,0,0,0,0,0,0,0,0,
0,0,0,0,0,0,0,0,0,0,0,0,0,0,0,0,0,0,0,0,0,0,0,0,0,
0,0,0,0,0,0,0,0,0,0,0,0,0,0,0,0,0,0,0,0,0,0,0,0,0,
0,0,0,0,0,0,0,0,0,0,0,0,0,0,0,0,0,0,0,0,0,0,0,0,0,
0,0,0,0,0,0,0,0,0,0,1616,1617,1617,1618,0,0,0,0,0,0,0,0,0,0,0,
0,0,0,0,0,0,0,0,0,0,1744,1683,1683,1746,0,0,0,0,0,0,0,0,0,0,0,
0,0,0,0,0,0,0,0,0,0,1808,1809,1809,1810,0,0,0,0,0,0,0,0,0,0,0,
0,0,0,0,0,0,0,0,0,0,1872,1937,2001,1874,0,0,0,0,0,0,0,0,0,0,0,
0,0,0,0,0,0,0,0,0,0,0,398,399,400,0,0,0,0,0,0,0,0,0,0,0,
0,0,0,0,0,0,0,0,0,0,0,0,0,0,0,0,0,0,0,0,0,0,0,0,0,
0,0,0,0,0,0,0,0,0,0,0,0,0,0,0,0,0,0,0,0,0,0,0,0,0,
0,0,0,0,0,0,0,0,0,0,0,0,0,0,0,0,0,0,0,0,0,0,0,0,0,
0,0,0,0,0,0,0,0,0,0,0,0,0,0,0,0,0,0,0,0,0,0,0,0,0,
0,0,0,0,0,0,0,0,0,0,0,0,0,0,0,0,0,0,0,0,0,0,0,0,0,
0,0,0,0,0,0,0,0,0,0,0,0,0,0,0,0,0,0,0,0,0,0,0,0,0,
0,0,0,0,0,0,0,0,0,0,0,0,0,0,0,0,0,0,0,0,0,0,0,0,0,
0,0,0,0,0,0,0,0,0,0,0,0,0,0,0,0,0,0,0,0,0,0,0,0,0,
0,0,0,0,0,0,0,0,0,0,0,0,0,0,0,0,0,0,0,0,0,0,0,0,0,
0,0,0,0,0,0,0,0,0,0,0,0,0,0,0,0,0,0,0,0,0,0,0,0,0,
0,0,0,0,0,0,0,0,0,0,0,0,0,0,0,0,0,0,0,0,0,0,0,0,0
</data>
 </layer>
 <layer id="13" name="house_lv1_up_details" width="25" height="25">
  <data encoding="csv">
0,0,0,0,0,0,0,0,0,0,0,0,0,0,0,0,0,0,0,0,0,0,0,0,0,
0,0,0,0,0,0,0,0,0,0,0,0,0,0,0,0,0,0,0,0,0,0,0,0,0,
0,0,0,0,0,0,0,0,0,0,0,0,0,0,0,0,0,0,0,0,0,0,0,0,0,
0,0,0,0,0,0,0,0,0,0,0,0,0,0,0,0,0,0,0,0,0,0,0,0,0,
0,0,0,0,0,0,0,0,0,0,0,0,0,0,0,0,0,0,0,0,0,0,0,0,0,
0,0,0,0,0,0,0,0,0,0,0,0,0,0,0,0,0,0,0,0,0,0,0,0,0,
0,0,0,0,0,0,0,0,0,0,0,0,0,0,0,0,0,0,0,0,0,0,0,0,0,
0,0,0,0,0,0,0,0,0,0,0,0,0,0,0,0,0,0,0,0,0,0,0,0,0,
0,0,0,0,0,0,0,0,0,0,0,0,0,0,0,0,0,0,0,0,0,0,0,0,0,
0,0,0,0,0,0,0,0,0,0,0,350,0,0,0,0,0,0,0,0,0,0,0,0,0,
0,0,0,0,0,0,0,0,0,0,0,0,0,0,0,0,0,0,0,0,0,0,0,0,0,
0,0,0,0,0,0,0,0,0,0,0,0,0,0,0,0,0,0,0,0,0,0,0,0,0,
0,0,0,0,0,0,0,0,0,0,0,0,0,0,0,0,0,0,0,0,0,0,0,0,0,
0,0,0,0,0,0,0,0,0,0,0,0,0,0,0,0,0,0,0,0,0,0,0,0,0,
0,0,0,0,0,0,0,0,0,0,0,0,0,0,0,0,0,0,0,0,0,0,0,0,0,
0,0,0,0,0,0,0,0,0,0,0,0,0,0,0,0,0,0,0,0,0,0,0,0,0,
0,0,0,0,0,0,0,0,0,0,0,0,0,0,0,0,0,0,0,0,0,0,0,0,0,
0,0,0,0,0,0,0,0,0,0,0,0,0,0,0,0,0,0,0,0,0,0,0,0,0,
0,0,0,0,0,0,0,0,0,0,0,0,0,0,0,0,0,0,0,0,0,0,0,0,0,
0,0,0,0,0,0,0,0,0,0,0,0,0,0,0,0,0,0,0,0,0,0,0,0,0,
0,0,0,0,0,0,0,0,0,0,0,0,0,0,0,0,0,0,0,0,0,0,0,0,0,
0,0,0,0,0,0,0,0,0,0,0,0,0,0,0,0,0,0,0,0,0,0,0,0,0,
0,0,0,0,0,0,0,0,0,0,0,0,0,0,0,0,0,0,0,0,0,0,0,0,0,
0,0,0,0,0,0,0,0,0,0,0,0,0,0,0,0,0,0,0,0,0,0,0,0,0,
0,0,0,0,0,0,0,0,0,0,0,0,0,0,0,0,0,0,0,0,0,0,0,0,0
</data>
 </layer>
 <layer id="15" name="forest_devastated" width="25" height="25">
  <data encoding="csv">
0,0,0,0,0,0,0,0,0,0,0,0,0,0,0,0,0,0,0,0,0,0,0,0,0,
0,0,0,0,0,0,0,0,0,0,0,0,0,0,0,0,0,0,0,0,0,0,0,0,0,
0,0,0,0,0,0,0,0,0,0,0,0,0,0,0,0,0,0,0,0,0,0,0,0,0,
0,0,0,353,0,353,0,353,0,0,0,0,0,0,0,0,0,0,0,0,0,0,0,0,0,
0,0,0,0,0,0,0,0,0,0,0,0,0,0,0,0,0,0,0,0,0,0,0,0,0,
0,0,0,353,0,353,0,0,0,0,0,0,0,0,0,0,0,0,0,0,0,0,0,0,0,
0,0,0,0,0,0,0,0,0,0,0,0,0,0,0,0,0,0,0,0,0,0,0,0,0,
0,0,0,353,0,0,0,0,0,0,0,0,0,0,0,0,0,0,0,0,0,0,0,0,0,
0,0,0,0,0,0,0,0,0,0,0,0,0,0,0,0,0,0,0,0,0,0,0,0,0,
0,0,0,0,0,0,0,0,0,0,0,0,0,0,0,0,0,0,0,0,0,0,0,0,0,
0,0,0,0,0,0,0,0,0,0,0,0,0,0,0,0,0,0,0,0,0,0,0,0,0,
0,0,0,0,0,0,0,0,0,0,0,0,0,0,0,0,0,0,0,0,0,0,0,0,0,
0,0,0,0,0,0,0,0,0,0,0,0,0,0,0,0,0,0,0,0,0,0,0,0,0,
0,0,0,0,0,0,0,0,0,0,0,0,0,0,0,0,0,0,0,0,0,0,0,0,0,
0,0,0,0,0,0,0,0,0,0,0,0,0,0,0,0,0,0,0,0,0,0,0,0,0,
0,0,0,0,0,0,0,0,0,0,0,0,0,0,0,0,0,0,0,0,0,0,0,0,0,
0,0,0,0,0,0,0,0,0,0,0,0,0,0,0,0,0,0,0,0,0,0,0,0,0,
0,0,0,0,0,0,0,0,0,0,0,0,0,0,0,0,0,0,0,0,0,0,0,0,0,
0,0,0,0,0,0,0,0,0,0,0,0,0,0,0,0,0,0,0,0,0,0,0,0,0,
0,0,0,0,0,0,0,0,0,0,0,0,0,0,0,0,0,0,0,0,0,0,0,0,0,
0,0,0,0,0,0,0,0,0,0,0,0,0,0,0,0,0,0,0,0,0,0,0,0,0,
0,0,0,0,0,0,0,0,0,0,0,0,0,0,0,0,0,0,0,0,0,0,0,0,0,
0,0,0,0,0,0,0,0,0,0,0,0,0,0,0,0,0,0,0,0,0,0,0,0,0,
0,0,0,0,0,0,0,0,0,0,0,0,0,0,0,0,0,0,0,0,0,0,0,0,0,
0,0,0,0,0,0,0,0,0,0,0,0,0,0,0,0,0,0,0,0,0,0,0,0,0
</data>
 </layer>
 <layer id="8" name="richards_glory" width="25" height="25">
  <data encoding="csv">
0,0,0,0,0,0,0,0,0,0,0,0,0,0,0,0,0,0,0,0,0,0,0,0,0,
0,0,0,0,0,0,0,0,0,0,0,0,0,0,0,0,0,0,0,0,0,0,0,0,0,
0,0,0,0,0,0,0,0,0,0,0,0,0,0,0,0,0,0,0,0,0,0,0,0,0,
0,0,0,0,0,0,0,0,0,0,0,0,0,0,0,0,0,0,0,0,0,0,0,0,0,
0,0,0,0,0,0,0,0,0,0,0,0,0,0,0,0,0,0,0,0,0,0,0,0,0,
0,0,0,0,0,0,0,0,0,0,0,0,0,0,0,0,0,0,0,0,0,0,0,0,0,
0,0,0,0,0,0,0,0,0,0,0,0,0,0,0,0,0,0,0,0,0,0,0,0,0,
0,0,0,0,0,0,0,0,0,0,0,0,0,0,0,0,0,0,0,0,0,0,0,0,0,
0,0,0,0,0,0,0,0,0,0,0,0,0,0,0,0,0,0,0,0,0,0,0,0,0,
0,0,0,0,0,0,0,0,0,0,0,0,0,0,0,0,0,1667,0,0,0,0,0,0,0,
0,0,0,0,0,0,0,0,0,0,0,0,0,0,0,0,0,1667,0,0,0,0,0,0,0,
0,1667,0,0,0,0,0,0,0,0,0,0,0,0,0,0,0,1667,0,0,0,0,0,0,0,
0,0,0,0,0,0,0,0,0,0,0,0,0,0,0,0,0,0,0,0,0,0,0,0,0,
0,0,0,0,0,0,0,0,0,0,0,0,0,0,0,0,0,0,0,0,0,0,0,0,0,
0,0,0,0,0,0,0,0,0,0,0,0,0,0,0,0,0,0,0,0,0,0,0,0,0,
0,0,0,0,0,0,0,0,0,0,0,0,0,0,0,0,0,0,0,0,0,0,0,0,0,
0,0,0,0,0,0,0,0,0,0,0,0,0,0,0,0,0,0,0,1197,1198,0,0,0,0,
0,0,0,0,0,0,0,0,0,0,0,0,0,0,0,0,0,0,0,1261,1262,0,0,0,0,
0,0,0,0,0,0,0,0,0,0,0,0,0,0,0,0,0,0,0,1325,1326,0,0,0,0,
0,0,0,0,0,0,0,0,0,0,0,0,0,0,0,0,0,0,0,1389,1390,0,0,0,0,
0,0,0,0,0,0,0,0,0,0,0,0,0,0,0,0,0,0,0,0,0,0,0,0,0,
0,0,0,0,0,0,0,0,0,0,0,0,0,0,0,0,0,0,0,0,0,0,0,0,0,
0,0,0,0,0,0,0,0,0,0,0,0,0,0,0,0,0,0,0,0,0,0,0,0,0,
0,0,0,0,0,0,0,0,0,0,0,0,0,0,0,0,0,0,0,0,0,0,0,0,0,
0,0,0,0,0,0,0,0,0,0,0,0,0,0,0,0,0,0,0,0,0,0,0,0,0
</data>
 </layer>
 <layer id="18" name="orchad" width="25" height="25">
  <data encoding="csv">
0,0,0,0,0,0,0,0,0,0,0,0,0,0,0,0,0,0,0,0,0,0,0,0,0,
0,0,0,0,0,0,0,0,0,0,0,0,0,0,0,0,0,0,0,0,0,0,0,0,0,
0,0,0,0,0,0,0,0,0,0,0,0,0,0,0,0,0,0,0,0,0,0,0,0,0,
0,0,0,0,0,0,0,0,0,0,0,0,0,0,0,0,0,0,0,0,0,0,0,0,0,
0,0,0,0,0,0,0,0,0,0,0,0,0,0,0,0,0,0,0,0,0,0,0,0,0,
0,0,0,0,0,0,0,0,0,0,0,0,0,0,0,0,0,0,0,0,0,0,0,0,0,
0,0,0,0,0,0,0,0,0,0,0,0,0,0,0,0,0,0,0,0,0,0,0,0,0,
0,0,0,0,0,0,0,0,0,0,0,0,0,0,0,0,0,0,0,0,0,0,0,0,0,
0,0,0,0,0,0,0,0,0,0,0,0,0,0,0,0,0,0,0,0,0,0,0,0,0,
0,0,0,0,0,0,0,0,0,0,0,0,0,0,0,0,0,0,0,0,0,0,0,0,0,
0,0,0,0,0,0,0,0,0,0,0,0,0,0,0,0,0,0,0,0,0,0,0,0,0,
0,0,0,0,0,0,0,0,0,0,0,0,0,0,0,0,0,0,0,0,0,0,0,0,0,
0,0,0,0,0,0,0,0,0,0,0,0,0,0,0,0,0,0,0,0,0,0,0,0,0,
0,0,0,0,0,0,0,0,0,0,0,0,548,0,0,0,0,0,0,0,0,0,0,0,0,
0,0,0,0,0,0,0,0,0,0,0,0,548,0,0,0,0,0,0,0,0,0,0,0,0,
0,0,0,0,0,0,0,0,0,0,0,0,548,0,0,0,0,0,0,0,0,0,0,0,0,
0,0,0,819,819,819,819,819,0,0,0,0,0,0,0,0,0,0,0,0,0,0,0,0,0,
0,0,0,819,819,819,819,819,0,0,0,0,0,0,0,0,0,0,0,0,0,0,0,0,0,
0,0,0,819,819,819,819,819,0,0,0,0,0,0,0,0,0,0,0,0,0,0,0,0,0,
0,0,0,819,819,819,819,819,0,0,0,0,0,0,0,0,0,0,0,0,0,0,0,0,0,
0,0,0,0,0,0,0,0,0,0,0,0,0,0,0,0,0,0,0,0,0,0,0,0,0,
0,0,0,0,0,0,0,0,0,0,0,0,0,0,0,0,0,0,0,0,0,0,0,0,0,
0,0,0,0,0,0,0,0,0,0,0,0,0,0,0,0,0,0,0,0,0,0,0,0,0,
0,0,0,0,0,0,0,0,0,0,0,0,0,0,0,0,0,0,0,0,0,0,0,0,0,
0,0,0,0,0,0,0,0,0,0,0,0,0,0,0,0,0,0,0,0,0,0,0,0,0
</data>
 </layer>
 <layer id="19" name="farm" width="25" height="25">
  <data encoding="csv">
0,0,0,0,0,0,0,0,0,0,0,0,0,0,0,0,0,0,0,0,0,0,0,0,0,
0,0,0,0,0,0,0,0,0,0,0,0,0,0,0,0,0,0,0,0,0,0,0,0,0,
0,0,0,0,0,0,0,0,0,0,0,0,0,0,0,0,0,0,0,0,0,0,0,0,0,
0,0,0,0,0,0,0,0,0,0,0,0,0,0,0,0,0,0,0,0,0,0,0,0,0,
0,0,0,0,0,0,0,0,0,0,0,0,0,0,0,0,0,0,0,0,0,0,0,0,0,
0,0,0,0,0,0,0,0,0,0,0,0,0,0,0,0,0,0,0,0,0,0,0,0,0,
0,0,0,0,0,0,0,0,0,0,0,0,0,0,0,0,0,0,0,0,0,0,0,0,0,
0,0,0,0,0,0,0,0,0,0,0,0,0,0,0,0,0,0,0,0,0,0,0,0,0,
0,0,0,0,0,0,0,0,0,0,0,0,0,0,0,0,0,0,0,0,0,0,0,0,0,
0,0,0,0,0,0,0,0,0,0,0,0,0,0,0,0,0,0,0,0,0,0,0,0,0,
0,0,0,0,0,0,0,0,0,0,0,0,0,0,0,0,0,0,0,0,0,0,0,0,0,
0,0,0,0,0,0,0,0,0,0,0,0,0,0,0,0,0,174,110,110,110,110,176,0,0,
0,0,0,0,0,0,0,0,0,0,0,0,0,0,0,0,946,301,0,0,0,0,237,0,0,
0,0,0,0,0,0,0,0,0,0,0,0,0,0,0,0,946,237,0,0,0,0,301,0,0,
0,0,0,0,0,0,0,0,0,0,0,0,0,0,0,0,946,301,0,0,0,0,237,0,0,
0,0,0,0,0,0,0,0,0,0,0,0,0,0,0,0,0,302,175,110,111,112,304,0,0,
0,0,0,0,0,0,0,0,0,0,0,0,0,0,0,0,0,0,0,0,0,0,0,0,0,
0,0,0,0,0,0,0,0,0,0,0,0,0,0,0,0,0,0,0,0,0,0,0,0,0,
0,0,0,0,0,0,0,0,0,0,0,0,0,0,0,0,0,0,0,0,0,0,0,0,0,
0,0,0,0,0,0,0,0,0,0,0,0,0,0,0,0,0,0,0,0,0,0,0,0,0,
0,0,0,0,0,0,0,0,0,0,0,0,0,0,0,0,0,0,0,0,0,0,0,0,0,
0,0,0,0,0,0,0,0,0,0,0,0,0,0,0,0,0,0,0,0,0,0,0,0,0,
0,0,0,0,0,0,0,0,0,0,0,0,0,0,0,0,0,0,0,0,0,0,0,0,0,
0,0,0,0,0,0,0,0,0,0,0,0,0,0,0,0,0,0,0,0,0,0,0,0,0,
0,0,0,0,0,0,0,0,0,0,0,0,0,0,0,0,0,0,0,0,0,0,0,0,0
</data>
 </layer>
 <layer id="21" name="collisions_state0" width="25" height="25">
  <data encoding="csv">
77,77,77,77,77,77,77,77,77,77,77,77,77,77,77,77,77,77,77,77,77,77,77,77,77,
77,77,77,77,77,77,77,77,77,77,77,77,77,77,77,77,77,77,77,77,77,77,77,77,77,
77,77,1610612814,0,0,0,0,0,0,0,0,0,0,0,0,0,0,0,0,0,0,0,78,77,77,
77,77,0,77,0,77,0,77,0,0,0,0,0,0,0,2684354638,77,77,77,77,77,3221225550,0,77,77,
77,77,0,0,0,0,0,0,0,0,0,0,0,0,0,77,0,0,0,0,0,77,0,77,77,
77,77,0,77,0,77,0,0,0,0,0,0,0,0,0,77,0,0,0,0,0,77,0,77,77,
77,77,0,0,0,0,0,0,0,0,0,0,0,0,0,77,77,77,0,77,77,77,0,77,77,
77,77,0,77,0,0,0,0,0,0,0,0,0,0,0,78,77,77,0,77,77,1610612814,0,77,77,
77,77,0,0,0,0,0,0,0,0,0,0,0,0,0,0,0,0,0,0,0,0,0,77,77,
77,77,0,0,0,0,0,0,0,0,0,0,0,0,0,0,0,0,0,0,0,77,0,77,77,
77,77,0,0,0,0,0,0,0,0,77,77,77,77,0,0,0,0,0,0,0,0,0,77,77,
77,77,0,0,0,0,0,0,0,0,77,0,0,77,0,0,0,77,77,77,77,77,77,77,77,
77,77,0,0,0,0,0,0,0,0,77,77,77,77,0,0,77,77,0,0,0,0,77,77,77,
77,77,0,0,0,0,0,0,0,0,0,0,0,0,0,0,77,77,0,0,0,0,77,77,77,
77,77,2684354638,3221225550,0,0,0,0,0,0,0,0,0,0,0,0,77,77,0,0,0,0,77,77,77,
77,77,78,1610612814,0,0,0,0,0,0,0,0,0,0,0,0,0,77,77,77,77,77,77,77,77,
77,77,0,77,77,77,77,77,0,0,0,0,0,0,0,0,0,0,0,0,0,0,0,77,77,
77,77,0,77,0,0,0,77,0,0,0,0,0,0,0,0,0,0,0,0,0,0,0,77,77,
77,77,0,77,0,0,0,77,0,0,0,0,0,0,0,0,0,0,2684354638,77,77,3221225550,0,77,77,
77,77,0,77,77,77,77,77,0,0,2684354638,77,77,77,3221225550,0,0,0,78,77,77,1610612814,0,77,77,
77,77,3221225550,0,0,0,0,0,0,2684354638,77,77,77,77,77,3221225550,0,0,0,0,0,0,2684354638,77,77,
77,77,77,77,77,77,77,77,77,77,77,77,77,77,77,77,77,77,77,77,77,77,77,77,77,
77,77,77,77,77,77,77,77,77,77,77,77,77,77,77,77,77,77,77,77,77,77,77,77,77,
77,77,77,77,77,77,77,77,77,77,77,77,77,77,77,77,77,77,77,77,77,77,77,77,77,
77,77,77,77,77,77,77,77,77,77,77,77,77,77,77,77,77,77,77,77,77,77,77,77,77
</data>
 </layer>
 <layer id="24" name="collisions_state1" width="25" height="25" visible="0">
  <data encoding="csv">
77,77,77,77,77,77,77,77,77,77,77,77,77,77,77,77,77,77,77,77,77,77,77,77,77,
77,77,77,77,77,77,77,77,77,77,77,77,77,77,77,77,77,77,77,77,77,77,77,77,77,
77,77,0,0,0,0,0,0,0,0,0,0,0,0,0,0,0,0,0,0,0,0,0,77,77,
77,77,0,77,0,77,0,77,0,0,0,0,0,0,0,77,77,77,77,77,77,77,0,77,77,
77,77,0,0,0,0,0,0,0,0,0,0,0,0,0,77,0,0,0,0,0,77,0,77,77,
77,77,0,77,0,77,0,0,0,0,0,0,0,0,0,77,0,0,0,0,0,77,0,77,77,
77,77,0,0,0,0,0,0,0,0,0,0,0,0,0,77,0,0,0,0,0,77,0,77,77,
77,77,0,77,0,0,0,0,0,0,0,0,0,0,0,77,77,77,0,77,77,77,0,77,77,
77,77,0,0,0,0,0,0,0,0,0,0,0,0,0,0,0,0,0,0,0,0,0,77,77,
77,77,0,0,0,0,0,0,0,0,0,0,0,0,0,0,0,0,0,0,0,77,0,77,77,
77,77,0,0,0,0,0,0,0,0,77,77,77,77,0,0,0,0,0,0,0,0,0,77,77,
77,77,0,0,0,0,0,0,0,0,77,0,0,77,0,0,0,77,77,77,77,77,77,77,77,
77,77,0,0,0,0,0,0,0,0,77,77,77,77,0,0,77,77,0,0,0,0,77,77,77,
77,77,0,0,0,0,0,0,0,0,0,0,0,0,0,0,77,77,0,0,0,0,77,77,77,
77,77,0,0,0,0,0,0,0,0,0,0,0,0,0,0,77,77,0,0,0,0,77,77,77,
77,77,0,0,0,0,0,0,0,0,0,0,0,0,0,0,0,77,77,77,77,77,77,77,77,
77,77,0,77,77,77,77,77,0,0,0,0,0,0,0,0,0,0,0,0,0,0,0,77,77,
77,77,0,77,0,0,0,77,0,0,0,0,0,0,0,0,0,0,0,0,0,0,0,77,77,
77,77,0,77,0,0,0,77,0,0,0,0,0,0,0,0,0,0,77,77,77,77,0,77,77,
77,77,0,77,77,77,77,77,0,0,0,77,77,77,0,0,0,0,77,77,77,77,0,77,77,
77,77,0,0,0,0,0,0,0,0,77,77,77,77,77,0,0,0,0,0,0,0,0,77,77,
77,77,77,77,77,77,77,77,77,77,77,77,77,77,77,77,77,77,77,77,77,77,77,77,77,
77,77,77,77,77,77,77,77,77,77,77,77,77,77,77,77,77,77,77,77,77,77,77,77,77,
77,77,77,77,77,77,77,77,77,77,77,77,77,77,77,77,77,77,77,77,77,77,77,77,77,
77,77,77,77,77,77,77,77,77,77,77,77,77,77,77,77,77,77,77,77,77,77,77,77,77
</data>
 </layer>
</map>
