<?xml version="1.0" encoding="UTF-8"?>
<map version="1.10" tiledversion="1.11.1" orientation="orthogonal" renderorder="left-up" width="20" height="11" tilewidth="16" tileheight="16" infinite="0" nextlayerid="4" nextobjectid="1">
 <editorsettings>
  <export target="inicio.json" format="json"/>
 </editorsettings>
 <tileset firstgid="1" name="tileset_examen" tilewidth="16" tileheight="16" tilecount="5650" columns="113">
  <image source="../tilesets/tileset_examen.png" width="1808" height="812"/>
 </tileset>
 <layer id="2" name="layer_floor" width="20" height="11">
  <data encoding="csv">
0,0,0,0,0,0,0,0,0,0,0,0,0,0,0,0,0,0,0,0,
0,0,0,0,0,0,0,0,0,0,0,0,0,0,0,0,0,0,0,0,
0,0,0,0,0,0,0,0,0,0,0,0,0,0,0,0,0,0,0,0,
0,0,0,0,0,0,0,0,0,1829,0,0,0,0,0,0,0,0,0,0,
0,0,0,0,0,0,0,2223,2224,2224,2224,2225,0,0,0,0,0,0,0,0,
0,0,0,0,0,0,0,2336,2337,2337,2337,2338,0,0,0,0,0,0,0,0,
0,0,0,0,0,0,0,2449,2450,2450,2450,2451,0,0,0,0,0,0,0,0,
0,0,0,0,0,0,0,0,0,1832,0,0,0,0,0,0,0,0,0,0,
0,0,0,0,0,0,0,0,0,0,0,0,0,0,0,0,0,0,0,0,
0,0,0,0,0,0,0,0,0,0,0,0,0,0,0,0,0,0,0,0,
0,0,0,0,0,0,0,0,0,0,0,0,0,0,0,0,0,0,0,0
</data>
 </layer>
 <layer id="1" name="layer_walls" width="20" height="11">
  <data encoding="csv">
0,0,0,0,0,0,0,0,0,0,0,0,0,0,0,0,0,0,0,0,
0,0,0,0,0,0,0,0,0,0,0,0,0,0,0,0,0,0,0,0,
0,0,0,0,0,0,0,0,0,0,0,0,0,0,0,0,0,0,0,0,
0,0,0,0,0,0,1718,1719,2177,0,2179,1719,1720,0,0,0,0,0,0,0,
0,0,0,0,0,0,1831,0,0,0,0,0,1833,0,0,0,0,0,0,0,
0,0,0,0,0,0,1831,0,0,0,0,0,1833,0,0,0,0,0,0,0,
0,0,0,0,0,0,1831,0,0,0,0,0,1833,0,0,0,0,0,0,0,
0,0,0,0,0,0,1944,1945,1945,1945,1945,1945,1946,0,0,0,0,0,0,0,
0,0,0,0,0,0,0,0,0,0,0,0,0,0,0,0,0,0,0,0,
0,0,0,0,0,0,0,0,0,0,0,0,0,0,0,0,0,0,0,0,
0,0,0,0,0,0,0,0,0,0,0,0,0,0,0,0,0,0,0,0
</data>
 </layer>
 <layer id="3" name="layer_overlap" width="20" height="11">
  <data encoding="csv">
0,0,0,0,0,0,0,0,0,0,0,0,0,0,0,0,0,0,0,0,
0,0,0,0,0,0,0,0,0,0,0,0,0,0,0,0,0,0,0,0,
0,0,0,0,0,0,0,0,2290,2291,2292,0,0,0,0,0,0,0,0,0,
0,0,0,0,0,0,0,0,0,2404,0,0,0,0,0,0,0,0,0,0,
0,0,0,0,0,0,0,0,0,0,0,0,0,0,0,0,0,0,0,0,
0,0,0,0,0,0,0,0,0,0,0,0,0,0,0,0,0,0,0,0,
0,0,0,0,0,0,0,0,0,0,0,0,0,0,0,0,0,0,0,0,
0,0,0,0,0,0,0,0,0,0,0,0,0,0,0,0,0,0,0,0,
0,0,0,0,0,0,0,0,0,0,0,0,0,0,0,0,0,0,0,0,
0,0,0,0,0,0,0,0,0,0,0,0,0,0,0,0,0,0,0,0,
0,0,0,0,0,0,0,0,0,0,0,0,0,0,0,0,0,0,0,0
</data>
 </layer>
</map>
